assets/icons/feedback.svg

<?xml version="1.0" encoding="UTF-8"?>
<svg width="1024px" height="1024px" viewBox="0 0 1024 1024" version="1.1" xmlns="http://www.w3.org/2000/svg" xmlns:xlink="http://www.w3.org/1999/xlink">
    <!-- Generator: Sketch 50.2 (55047) - http://www.bohemiancoding.com/sketch -->
    <title>Artboard</title>
    <desc>Created with Sketch.</desc>
    <defs></defs>
    <g id="Artboard" stroke="none" stroke-width="1" fill="none" fill-rule="evenodd">
        <path d="M929.99868,0 L93.7334144,0 C57.8932986,0 34,24.0940956 34,60.2352055 L34,722.823152 C34,758.962584 57.8932986,783.059267 93.7334144,783.059267 L213.199721,783.059267 L213.199721,1024 L452.132707,783.059267 L929.99868,783.059267 C965.83984,783.059267 989.731461,758.962584 989.731461,722.823152 L989.731461,60.2352055 C989.731461,24.0940956 965.83984,0 929.99868,0 Z M929.99868,722.823152 L428.241087,722.823152 L272.932874,879.434815 L272.932874,722.823152 L93.7334144,722.823152 L93.7334144,60.2352055 L929.99868,60.2352055 L929.99868,722.823152 Z M458.105613,602.350922 L231.119928,373.456666 L272.932874,331.293623 L446.159802,505.975374 L750.800339,180.705572 L798.587309,216.846868 L458.105613,602.350922 Z" id="Shape" fill="#000000" fill-rule="nonzero"></path>
    </g>
</svg>

<svg width="1024" height="1024" xmlns="http://www.w3.org/2000/svg"><path d="M929.999 0H93.733C57.893 0 34 24.094 34 60.235v662.588c0 36.14 23.893 60.236 59.733 60.236H213.2V1024l238.933-240.94h477.866c35.84 0 59.732-24.097 59.732-60.237V60.235C989.731 24.095 965.84 0 930 0zm0 722.823H428.24L272.933 879.435V722.823h-179.2V60.235H930v662.588zM458.106 602.351L231.12 373.457l41.813-42.163L446.16 505.975l304.64-325.27 47.787 36.142L458.106 602.35z" fill="#000" fill-rule="nonzero"/></svg>
